wp-content/themes/target/img/bg/bg-type-img.svg

<svg width="373" height="271" viewBox="0 0 373 271" fill="none" xmlns="http://www.w3.org/2000/svg">
<path fill-rule="evenodd" clip-rule="evenodd" d="M225.561 103.207L200.535 92.897C197.76 91.7536 194.642 91.7536 191.867 92.897L166.841 103.207C164.066 104.35 161.861 106.543 160.712 109.303L150.346 134.193C149.196 136.954 149.196 140.055 150.346 142.815L160.712 167.705C161.861 170.465 164.066 172.658 166.841 173.802L191.867 184.111C194.642 185.255 197.76 185.255 200.535 184.111L225.561 173.802C228.336 172.658 230.541 170.465 231.69 167.705L242.056 142.815C243.206 140.055 243.206 136.954 242.056 134.193L231.69 109.303C230.541 106.543 228.336 104.35 225.561 103.207ZM205.737 80.4081C199.631 77.8928 192.771 77.8928 186.666 80.4081L161.64 90.7179C155.535 93.2332 150.684 98.0578 148.155 104.13L137.789 129.02C135.26 135.093 135.26 141.916 137.789 147.988L148.155 172.878C150.684 178.951 155.535 183.775 161.64 186.29L186.666 196.6C192.771 199.116 199.631 199.116 205.737 196.6L230.762 186.29C236.867 183.775 241.718 178.951 244.247 172.878L254.613 147.988C257.142 141.916 257.142 135.093 254.613 129.02L244.247 104.13C241.718 98.0578 236.867 93.2332 230.762 90.7179L205.737 80.4081Z" fill="#13C077"/>
<path d="M228.877 70.5059C228.397 67.0632 224.369 65.4322 221.628 67.5701L216.387 71.6583C213.646 73.7962 214.247 78.0996 217.469 79.4044L223.63 81.8995C226.852 83.2043 230.278 80.5319 229.797 77.0892L228.877 70.5059Z" fill="#13C077"/>
<path d="M162.659 205.965C163.14 209.408 167.167 211.039 169.908 208.901L175.149 204.813C177.89 202.675 177.289 198.371 174.067 197.067L167.906 194.571C164.684 193.267 161.258 195.939 161.739 199.382L162.659 205.965Z" fill="#13C077"/>
<path d="M263.043 170.887C266.486 170.406 268.117 166.378 265.979 163.638L261.891 158.396C259.753 155.655 255.45 156.256 254.145 159.478L251.65 165.64C250.345 168.861 253.017 172.288 256.46 171.807L263.043 170.887Z" fill="#13C077"/>
<path d="M200.66 144.904C204.102 144.423 205.733 140.395 203.595 137.655L198.839 131.557C196.701 128.816 192.398 129.417 191.093 132.639L188.191 139.807C186.886 143.029 189.558 146.455 193.001 145.974L200.66 144.904Z" fill="#13C077"/>
<path d="M128.506 107.844C125.063 108.325 123.432 112.352 125.57 115.093L129.658 120.335C131.796 123.076 136.099 122.474 137.404 119.253L139.899 113.091C141.204 109.869 138.532 106.443 135.089 106.924L128.506 107.844Z" fill="#13C077"/>
<g opacity="0.3">
<path fill-rule="evenodd" clip-rule="evenodd" d="M24.8053 74.383C25.8057 74.4044 26.6063 75.2331 26.5936 76.234L26.4219 89.7375L37.2299 101.387C37.9135 102.124 37.8755 103.271 37.1451 103.948C36.4146 104.626 35.2683 104.578 34.5847 103.841L23.677 92.0842C23.1019 91.4643 22.7867 90.6479 22.7974 89.8058L22.9709 76.1565C22.9837 75.1557 23.8049 74.3617 24.8053 74.383ZM30.0579 72.1927C31.0582 72.2141 31.8589 73.0428 31.8461 74.0437L31.6652 88.2762C31.6524 89.277 30.8312 90.0711 29.8308 90.0497C28.8305 90.0283 28.0298 89.1996 28.0425 88.1987L28.2235 73.9662C28.2362 72.9653 29.0575 72.1713 30.0579 72.1927Z" fill="#13C077"/>
<path fill-rule="evenodd" clip-rule="evenodd" d="M4.66662 93.0637C4.61307 94.0629 5.37951 94.9233 6.37852 94.9855L19.8569 95.8252L30.665 107.475C31.3486 108.212 32.4949 108.26 33.2254 107.582C33.9558 106.904 33.9939 105.758 33.3103 105.021L22.4026 93.2637C21.8275 92.6437 21.0369 92.2683 20.1964 92.216L6.57245 91.3673C5.57344 91.305 4.72018 92.0646 4.66662 93.0637ZM2.08923 98.1376C2.03568 99.1367 2.80212 99.9972 3.80112 100.059L18.0073 100.944C19.0063 101.007 19.8595 100.247 19.9131 99.2479C19.9666 98.2488 19.2002 97.3883 18.2012 97.3261L3.99505 96.4411C2.99605 96.3789 2.14278 97.1384 2.08923 98.1376Z" fill="#13C077"/>
</g>
<g opacity="0.3">
<path fill-rule="evenodd" clip-rule="evenodd" d="M359.442 75.7155C360.522 77.7061 359.792 80.21 357.81 81.3082L331.071 96.1245L320.297 130.446C319.616 132.616 317.319 133.829 315.167 133.153C313.015 132.478 311.823 130.17 312.504 127.999L323.377 93.3621C323.95 91.5357 325.201 89.9998 326.869 89.0759L353.897 74.0996C355.879 73.0014 358.361 73.7249 359.442 75.7155ZM369.642 83.5834C370.723 85.574 369.992 88.078 368.01 89.1762L339.828 104.792C337.846 105.891 335.363 105.167 334.283 103.177C333.202 101.186 333.933 98.682 335.915 97.5838L364.097 81.9675C366.079 80.8694 368.562 81.5928 369.642 83.5834Z" fill="#13C077"/>
<path fill-rule="evenodd" clip-rule="evenodd" d="M300.115 57.0918C298.091 58.1078 297.259 60.5801 298.258 62.6139L311.733 90.0534L300.96 124.375C300.278 126.545 301.471 128.853 303.623 129.528C305.775 130.204 308.071 128.992 308.753 126.821L319.625 92.1833C320.199 90.357 320.05 88.3816 319.209 86.6704L305.589 58.9347C304.59 56.9009 302.139 56.0758 300.115 57.0918ZM287.248 57.7189C285.223 58.7349 284.392 61.2072 285.391 63.241L299.593 92.1619C300.592 94.1957 303.043 95.0208 305.067 94.0048C307.092 92.9888 307.923 90.5165 306.924 88.4827L292.722 59.5618C291.723 57.528 289.272 56.7029 287.248 57.7189Z" fill="#13C077"/>
</g>
<path fill-rule="evenodd" clip-rule="evenodd" d="M226.594 247.871C226.377 247.129 225.597 246.697 224.853 246.908L214.805 249.749L203.936 244.02C203.248 243.658 202.4 243.916 202.041 244.598C201.682 245.28 201.948 246.126 202.635 246.488L213.605 252.27C214.183 252.575 214.856 252.646 215.482 252.469L225.638 249.597C226.383 249.387 226.811 248.614 226.594 247.871ZM227.174 243.51C226.957 242.767 226.177 242.336 225.433 242.546L214.843 245.541C214.098 245.751 213.67 246.524 213.887 247.267C214.104 248.009 214.884 248.44 215.628 248.23L226.218 245.235C226.963 245.025 227.391 244.252 227.174 243.51Z" fill="#1BBC74"/>
<path fill-rule="evenodd" clip-rule="evenodd" d="M216.691 266.66C215.955 266.901 215.159 266.502 214.912 265.768L211.577 255.874L200.708 250.145C200.02 249.782 199.754 248.936 200.113 248.255C200.473 247.573 201.321 247.314 202.009 247.677L212.978 253.459C213.556 253.763 213.996 254.278 214.204 254.895L217.574 264.897C217.821 265.63 217.426 266.42 216.691 266.66ZM213.42 269.604C212.685 269.845 211.889 269.445 211.641 268.712L208.127 258.283C207.879 257.55 208.275 256.76 209.01 256.519C209.746 256.279 210.542 256.678 210.789 257.412L214.304 267.84C214.551 268.574 214.155 269.363 213.42 269.604Z" fill="#1BBC74"/>
<g opacity="0.2">
<path fill-rule="evenodd" clip-rule="evenodd" d="M133.914 216.322C134.27 217.904 133.278 219.485 131.699 219.855L110.395 224.841L96.2807 246.375C95.3879 247.736 93.5697 248.123 92.2195 247.238C90.8694 246.353 90.4986 244.531 91.3913 243.17L105.636 221.438C106.387 220.292 107.548 219.479 108.877 219.168L130.411 214.127C131.99 213.758 133.559 214.74 133.914 216.322ZM139.404 223.73C139.76 225.312 138.768 226.894 137.189 227.263L114.735 232.519C113.156 232.888 111.587 231.906 111.231 230.324C110.876 228.743 111.867 227.161 113.446 226.791L135.9 221.536C137.48 221.166 139.048 222.149 139.404 223.73Z" fill="#46FFA9"/>
<path fill-rule="evenodd" clip-rule="evenodd" d="M96.6938 191.923C95.1016 192.228 94.0467 193.768 94.3377 195.364L98.264 216.888L84.1494 238.421C83.2566 239.783 83.6275 241.605 84.9776 242.49C86.3278 243.375 88.146 242.988 89.0387 241.626L103.283 219.895C104.035 218.749 104.317 217.36 104.072 216.017L100.104 194.26C99.8127 192.665 98.2861 191.619 96.6938 191.923ZM87.7107 189.845C86.1185 190.15 85.0636 191.69 85.3546 193.285L89.4929 215.972C89.7839 217.568 91.3106 218.614 92.9028 218.309C94.4951 218.004 95.5499 216.464 95.2589 214.869L91.1207 192.182C90.8296 190.586 89.303 189.54 87.7107 189.845Z" fill="#46FFA9"/>
</g>
<g opacity="0.3">
<path fill-rule="evenodd" clip-rule="evenodd" d="M78.1513 45.0956C77.9644 43.4315 79.1609 41.9193 80.8238 41.7179L103.26 39.0006L120.18 18.4838C121.25 17.1861 123.161 16.9942 124.447 18.0551C125.733 19.1161 125.909 21.0281 124.839 22.3257L107.762 43.0317C106.862 44.1235 105.578 44.8278 104.179 44.9972L81.5007 47.7438C79.8378 47.9452 78.3382 46.7596 78.1513 45.0956ZM73.3505 36.8703C73.1636 35.2063 74.3601 33.694 76.023 33.4926L99.6702 30.6286C101.333 30.4272 102.833 31.6129 103.02 33.2769C103.207 34.941 102.01 36.4532 100.347 36.6546L76.6999 39.5186C75.037 39.72 73.5374 38.5343 73.3505 36.8703Z" fill="#13C077"/>
<path fill-rule="evenodd" clip-rule="evenodd" d="M113.616 74.3442C115.286 74.2109 116.542 72.7483 116.423 71.0775L114.82 48.5347L131.74 28.0178C132.81 26.7201 132.635 24.8081 131.348 23.7472C130.062 22.6862 128.151 22.8781 127.081 24.1758L110.005 44.8817C109.105 45.9735 108.658 47.3682 108.758 48.774L110.379 71.5602C110.498 73.2311 111.947 74.4775 113.616 74.3442ZM122.605 77.4912C124.274 77.3579 125.531 75.8953 125.412 74.2245L123.722 50.4646C123.603 48.7937 122.154 47.5473 120.484 47.6806C118.815 47.8139 117.558 49.2765 117.677 50.9473L119.368 74.7072C119.487 76.3781 120.936 77.6245 122.605 77.4912Z" fill="#13C077"/>
</g>
</svg>

<svg width="373" height="271" viewBox="0 0 373 271" fill="none" xmlns="http://www.w3.org/2000/svg"><path fill-rule="evenodd" clip-rule="evenodd" d="M225.561 103.207l-25.026-10.31a11.38 11.38 0 00-8.668 0l-25.026 10.31a11.292 11.292 0 00-6.129 6.096l-10.366 24.89a11.205 11.205 0 000 8.622l10.366 24.89a11.297 11.297 0 006.129 6.097l25.026 10.309a11.375 11.375 0 008.668 0l25.026-10.309a11.297 11.297 0 006.129-6.097l10.366-24.89a11.205 11.205 0 000-8.622l-10.366-24.89a11.292 11.292 0 00-6.129-6.096zm-19.824-22.799a25.043 25.043 0 00-19.071 0l-25.026 10.31a24.852 24.852 0 00-13.485 13.412l-10.366 24.89a24.659 24.659 0 000 18.968l10.366 24.89a24.848 24.848 0 0013.485 13.412l25.026 10.31a25.036 25.036 0 0019.071 0l25.025-10.31a24.848 24.848 0 0013.485-13.412l10.366-24.89a24.659 24.659 0 000-18.968l-10.366-24.89a24.852 24.852 0 00-13.485-13.412l-25.025-10.31z" fill="#13C077"/><path d="M228.877 70.506c-.48-3.443-4.508-5.074-7.249-2.936l-5.241 4.088c-2.741 2.138-2.14 6.442 1.082 7.746l6.161 2.496c3.222 1.304 6.648-1.368 6.167-4.81l-.92-6.584zm-66.218 135.459c.481 3.443 4.508 5.074 7.249 2.936l5.241-4.088c2.741-2.138 2.14-6.442-1.082-7.746l-6.161-2.496c-3.222-1.304-6.648 1.368-6.167 4.811l.92 6.583zm100.384-35.078c3.443-.481 5.074-4.509 2.936-7.249l-4.088-5.242c-2.138-2.741-6.441-2.14-7.746 1.082l-2.495 6.162c-1.305 3.221 1.367 6.648 4.81 6.167l6.583-.92zm-62.383-25.983c3.442-.481 5.073-4.509 2.935-7.249l-4.756-6.098c-2.138-2.741-6.441-2.14-7.746 1.082l-2.902 7.168c-1.305 3.222 1.367 6.648 4.81 6.167l7.659-1.07zm-72.154-37.06c-3.443.481-5.074 4.508-2.936 7.249l4.088 5.242c2.138 2.741 6.441 2.139 7.746-1.082l2.495-6.162c1.305-3.222-1.367-6.648-4.81-6.167l-6.583.92z" fill="#13C077"/><path d="M24.805 74.383c1 .021 1.801.85 1.789 1.851l-.172 13.504 10.808 11.649a1.812 1.812 0 01-.085 2.561c-.73.678-1.877.63-2.56-.107L23.677 92.084a3.291 3.291 0 01-.88-2.278l.174-13.65c.013-1 .834-1.794 1.834-1.773zm5.253-2.19c1 .021 1.8.85 1.788 1.85l-.18 14.233a1.793 1.793 0 01-1.835 1.774c-1-.022-1.801-.85-1.788-1.851l.18-14.233c.013-1 .835-1.795 1.835-1.773zM4.667 93.064a1.831 1.831 0 001.712 1.922l13.478.84 10.808 11.649c.684.737 1.83.785 2.56.107s.769-1.824.085-2.561L22.403 93.264a3.29 3.29 0 00-2.207-1.048l-13.624-.849a1.793 1.793 0 00-1.905 1.697zm-2.578 5.074a1.83 1.83 0 001.712 1.921l14.206.885a1.792 1.792 0 001.906-1.696 1.83 1.83 0 00-1.712-1.922l-14.206-.885a1.793 1.793 0 00-1.906 1.697zm357.353-22.422a4.145 4.145 0 01-1.632 5.592l-26.739 14.816-10.774 34.322c-.681 2.17-2.978 3.383-5.13 2.707-2.152-.675-3.344-2.983-2.663-5.154l10.873-34.637a7.446 7.446 0 013.492-4.286L353.897 74.1a4.06 4.06 0 015.545 1.616zm10.2 7.867a4.145 4.145 0 01-1.632 5.593l-28.182 15.616a4.058 4.058 0 01-5.545-1.615 4.145 4.145 0 011.632-5.593l28.182-15.617a4.059 4.059 0 015.545 1.616zm-69.527-26.491a4.145 4.145 0 00-1.857 5.522l13.475 27.44-10.773 34.321c-.682 2.17.511 4.478 2.663 5.153 2.152.676 4.448-.536 5.13-2.707l10.872-34.638a7.443 7.443 0 00-.416-5.513l-13.62-27.735a4.06 4.06 0 00-5.474-1.843zm-12.867.627a4.144 4.144 0 00-1.857 5.522l14.202 28.92a4.06 4.06 0 005.474 1.844 4.144 4.144 0 001.857-5.522l-14.202-28.921a4.06 4.06 0 00-5.474-1.843z" opacity=".3" fill-rule="evenodd" clip-rule="evenodd" fill="#13C077"/><path fill-rule="evenodd" clip-rule="evenodd" d="M226.594 247.871a1.416 1.416 0 00-1.741-.963l-10.048 2.841-10.869-5.729a1.4 1.4 0 00-1.895.578 1.401 1.401 0 00.594 1.89l10.97 5.782a2.543 2.543 0 001.877.199l10.156-2.872a1.386 1.386 0 00.956-1.726zm.58-4.361a1.416 1.416 0 00-1.741-.964l-10.59 2.995a1.386 1.386 0 00-.956 1.726 1.417 1.417 0 001.741.963l10.59-2.995a1.386 1.386 0 00.956-1.725zm-10.483 23.15a1.415 1.415 0 01-1.779-.892l-3.335-9.894-10.869-5.729a1.401 1.401 0 01-.595-1.89 1.401 1.401 0 011.896-.578l10.969 5.782a2.543 2.543 0 011.226 1.436l3.37 10.002a1.385 1.385 0 01-.883 1.763zm-3.271 2.944a1.416 1.416 0 01-1.779-.892l-3.514-10.429a1.386 1.386 0 01.883-1.764 1.416 1.416 0 011.779.893l3.515 10.428a1.387 1.387 0 01-.884 1.764z" fill="#1BBC74"/><path d="M133.914 216.322a2.967 2.967 0 01-2.215 3.533l-21.304 4.986-14.114 21.534c-.893 1.361-2.711 1.748-4.062.863-1.35-.885-1.72-2.707-.828-4.068l14.245-21.732a5.33 5.33 0 013.241-2.27l21.534-5.041a2.905 2.905 0 013.503 2.195zm5.49 7.408a2.966 2.966 0 01-2.215 3.533l-22.454 5.256a2.907 2.907 0 01-3.504-2.195 2.968 2.968 0 012.215-3.533l22.454-5.255a2.905 2.905 0 013.504 2.194zm-42.71-31.807a2.967 2.967 0 00-2.356 3.441l3.926 21.524-14.115 21.533c-.892 1.362-.522 3.184.829 4.069 1.35.885 3.168.498 4.06-.864l14.245-21.731a5.327 5.327 0 00.789-3.878l-3.968-21.757a2.907 2.907 0 00-3.41-2.337zm-8.983-2.078a2.967 2.967 0 00-2.356 3.44l4.138 22.687a2.905 2.905 0 003.41 2.337 2.967 2.967 0 002.356-3.44l-4.138-22.687a2.905 2.905 0 00-3.41-2.337z" opacity=".2" fill-rule="evenodd" clip-rule="evenodd" fill="#46FFA9"/><path d="M78.151 45.096a3.064 3.064 0 012.673-3.378L103.26 39l16.92-20.517c1.07-1.298 2.981-1.49 4.267-.429 1.286 1.061 1.462 2.973.392 4.27l-17.077 20.707a5.505 5.505 0 01-3.583 1.965l-22.678 2.747a3 3 0 01-3.35-2.648zm-4.8-8.226a3.064 3.064 0 012.672-3.377l23.647-2.864a3.001 3.001 0 013.35 2.648 3.065 3.065 0 01-2.673 3.378L76.7 39.519a3 3 0 01-3.35-2.649zm40.265 37.474a3.064 3.064 0 002.807-3.266l-1.603-22.543 16.92-20.517c1.07-1.298.895-3.21-.392-4.27-1.286-1.062-3.197-.87-4.267.428l-17.076 20.706a5.51 5.51 0 00-1.247 3.892l1.621 22.786a3 3 0 003.237 2.784zm8.989 3.147a3.064 3.064 0 002.807-3.266l-1.69-23.76a3 3 0 00-3.238-2.784 3.064 3.064 0 00-2.807 3.266l1.691 23.76a3 3 0 003.237 2.784z" opacity=".3" fill-rule="evenodd" clip-rule="evenodd" fill="#13C077"/></svg>
